X: 22166
T: L'Inconnu De Limoise
R: mazurka
M: 3/4
K: Gmajor
D G>A|:B2 B>G c>A|B2 B>B c>d|
c2 c>B A>G|A3 D G>A|B2 B>G c>A|
B2 B>B c>d|c2 c>B A>G|1 d3 D G>A:|2 d3 B c>d||
|:e2 g>f e>f|d2 d>c B>A|G>F G>A B>G|
D3 G G>F|E2 E>F G>A|G2F2E2|
F2 F>G A>B|1 A3B c>d:|2 G3||

